apps/earn-protocol-landing-page/public/img/landing-page/block-analytica.svg

<svg width="170" height="57" viewBox="0 0 170 57" fill="none" xmlns="http://www.w3.org/2000/svg">
  <path fill-rule="evenodd" clip-rule="evenodd"
    d="M0 56.9404V0.0596008H63.0796V17.0469H59.7756L59.7669 2.91016H3.16295V54.0918H59.7669V39.1982H63.0796V56.9404H0ZM22.3909 30.1655C22.9811 30.8297 23.2985 31.6574 23.2893 32.5083C23.3067 33.2503 23.0803 33.9803 22.6383 34.6066C22.178 35.2355 21.5246 35.7301 20.7578 36.0302C19.8418 36.3921 18.8493 36.5701 17.8494 36.5517H10.7243V21.6588H17.5377C18.5277 21.6389 19.5114 21.8056 20.4258 22.1483C21.1769 22.4313 21.8189 22.9074 22.2716 23.5172C22.6912 24.108 22.9092 24.7968 22.8987 25.4982C22.9334 26.2806 22.6661 27.0495 22.1421 27.6741C21.6175 28.2661 20.9037 28.6984 20.0974 28.9126C21.0082 29.0587 21.8259 29.5054 22.3909 30.1655ZM14.0369 27.7993H17.0639C17.7151 27.838 18.3606 27.6684 18.8866 27.3201C19.1029 27.1501 19.273 26.9375 19.3836 26.6988C19.4942 26.4601 19.5425 26.2016 19.5245 25.9434C19.5415 25.6842 19.4928 25.4249 19.3823 25.185C19.2718 24.9452 19.1023 24.7311 18.8866 24.5589C18.364 24.2036 17.717 24.0299 17.0639 24.0693H14.0369V27.7993ZM19.2533 33.6008C19.4812 33.4216 19.6606 33.1978 19.7777 32.9465C19.8948 32.6952 19.9465 32.4231 19.9289 32.151C19.9445 31.8689 19.8886 31.5873 19.7656 31.3276C19.6425 31.0678 19.4555 30.8367 19.2186 30.6518C18.6739 30.2667 17.9924 30.0733 17.3012 30.1075H14.0369V34.1164H17.3728C18.0483 34.1507 18.7152 33.9665 19.2533 33.5969V33.6008ZM28.7291 36.551V20.7638H25.4165V36.551H28.7291ZM33.8883 35.9787C32.8865 35.4804 32.0616 34.737 31.5087 33.8341C30.9168 32.8553 30.6177 31.7546 30.6407 30.64C30.6178 29.5228 30.9259 28.4202 31.5333 27.446C32.101 26.5405 32.9409 25.798 33.9563 25.304C35.0157 24.8062 36.1928 24.5463 37.3876 24.5463C38.5823 24.5463 39.7594 24.8062 40.8189 25.304C41.8343 25.798 42.6742 26.5405 43.2419 27.446C43.8492 28.422 44.1564 29.5264 44.1315 30.6453C44.1569 31.7644 43.8434 32.8687 43.2245 33.8393C42.6399 34.7449 41.7888 35.4871 40.7654 35.9839C39.6997 36.4966 38.5072 36.7572 37.2994 36.7414C36.1083 36.7572 34.933 36.4945 33.8883 35.9787ZM38.9861 33.7403C39.5271 33.4654 39.967 33.0536 40.2511 32.5558C40.5838 31.9619 40.7466 31.3025 40.7248 30.6374C40.7923 29.6869 40.4391 28.751 39.7426 28.0346C39.4342 27.7418 39.0616 27.51 38.6484 27.354C38.2353 27.198 37.7906 27.1212 37.3427 27.1285C36.8977 27.1199 36.4556 27.1962 36.0455 27.3524C35.6354 27.5085 35.2666 27.741 34.9631 28.0346C34.3462 28.7851 34.0113 29.6935 34.0072 30.6275C34.003 31.5615 34.3298 32.4723 34.94 33.2272C35.2374 33.5214 35.6014 33.7545 36.0075 33.9109C36.4135 34.0672 36.8521 34.1431 37.2936 34.1333C37.8856 34.1362 38.4685 34.0015 38.9861 33.7422V33.7403ZM48.3209 25.3092C47.3455 25.8078 46.5487 26.5474 46.0244 27.4407L46.0266 27.4336C45.4813 28.4316 45.1977 29.5292 45.1977 30.6417C45.1977 31.7541 45.4813 32.8517 46.0266 33.8498C46.5516 34.7433 47.3482 35.4835 48.323 35.9839C49.3487 36.4996 50.5077 36.761 51.682 36.7414C53.1264 36.789 54.5454 36.3894 55.7028 35.6091C56.7851 34.8438 57.5452 33.7685 57.8574 32.5611H54.2844C54.1233 33.0636 53.7733 33.5001 53.2942 33.7955C52.8152 34.091 52.237 34.227 51.6588 34.1803C51.2293 34.1964 50.8016 34.1208 50.4105 33.9597C50.0195 33.7987 49.6763 33.5566 49.4087 33.2533C48.804 32.4995 48.5117 31.5784 48.5827 30.6505C48.5161 29.7132 48.8076 28.7836 49.4087 28.0163C49.6763 27.713 50.0195 27.471 50.4105 27.3099C50.8016 27.1488 51.2293 27.0733 51.6588 27.0894C52.2509 27.0718 52.8337 27.2251 53.3224 27.5268C53.7771 27.8245 54.1134 28.2461 54.2815 28.7295H57.8661C57.5736 27.5086 56.8152 26.4189 55.723 25.6501C54.5483 24.889 53.1256 24.5025 51.6798 24.5517C50.5056 24.5322 49.3465 24.7935 48.3209 25.3092ZM67.5307 36.551L63.0825 31.5168V36.551H59.7698V20.7638H63.0825V29.7418L67.4873 24.7284H71.7909L66.0147 30.6602L71.8372 36.5537L67.5307 36.551ZM75.505 36.5511L81.4809 21.9743H83.3325L89.3076 36.5511H87.5717L86.1251 33.0447H78.6709L77.2409 36.5511H75.505ZM82.4052 23.8327L79.1699 31.8173L85.6398 31.8186L82.4052 23.8327ZM97.7361 24.7988C96.8308 24.7856 95.9365 24.9792 95.1366 25.3613C94.3813 25.7242 93.7682 26.2877 93.3804 26.9753V25.0126H91.7487V36.5504H93.3891V30.2489C93.2989 29.1248 93.6929 28.0125 94.4892 27.1435C94.8704 26.7886 95.331 26.5109 95.8404 26.3287C96.3498 26.1465 96.8964 26.0641 97.4439 26.0868C97.9694 26.0624 98.4948 26.1384 98.9855 26.3097C99.4762 26.481 99.9213 26.7438 100.291 27.0809C101.04 27.8762 101.415 28.9039 101.334 29.9445V36.5511H102.952V29.7861C103.004 29.1117 102.902 28.4348 102.653 27.797C102.404 27.1592 102.014 26.574 101.505 26.0771C101.004 25.6471 100.412 25.3124 99.7647 25.0928C99.1172 24.8732 98.4273 24.7732 97.7361 24.7988ZM114.661 25.6025C115.499 26.0633 116.164 26.7397 116.571 27.5444V25.0204H118.211V36.5517H116.571V33.9828C116.148 34.789 115.476 35.468 114.636 35.9383C113.693 36.4715 112.597 36.7435 111.484 36.7205C110.386 36.7354 109.305 36.4798 108.356 35.9813C107.424 35.4884 106.668 34.7658 106.175 33.8987C105.635 32.9306 105.366 31.8583 105.39 30.775C105.363 29.6914 105.632 28.6184 106.175 27.6513C106.664 26.7818 107.421 26.0584 108.356 25.5686C109.315 25.0751 110.404 24.8233 111.508 24.8398C112.618 24.8137 113.714 25.0786 114.661 25.6025ZM114.203 34.8562C114.941 34.4721 115.543 33.907 115.938 33.2266V33.2286C116.355 32.4665 116.571 31.6285 116.571 30.7792C116.571 29.9299 116.355 29.0919 115.938 28.3299C115.543 27.6495 114.941 27.0843 114.203 26.7002C113.474 26.3195 112.645 26.1225 111.803 26.1299C110.951 26.1167 110.11 26.3063 109.365 26.6794C108.64 27.0516 108.049 27.6048 107.664 28.2725C107.232 29.0413 107.019 29.8946 107.043 30.7561C107.022 31.6164 107.235 32.4681 107.664 33.237C108.044 33.9174 108.635 34.4836 109.365 34.8667C110.108 35.2454 110.949 35.4387 111.803 35.4266C112.645 35.434 113.474 35.237 114.203 34.8562ZM120.62 20.9124H122.26V36.5432H120.62V20.9124ZM127.173 25.0119H125.532V36.5458H127.173V25.0119ZM126.353 20.6732C126.197 20.6704 126.041 20.6961 125.897 20.7489C125.752 20.8017 125.62 20.8804 125.51 20.9802C125.393 21.0806 125.301 21.2023 125.24 21.3371C125.179 21.472 125.151 21.617 125.158 21.7624C125.152 21.9775 125.218 22.189 125.347 22.3698C125.477 22.5506 125.663 22.6923 125.883 22.7765C126.102 22.8608 126.345 22.8837 126.579 22.8424C126.813 22.801 127.028 22.6973 127.196 22.5447C127.312 22.4436 127.404 22.3218 127.464 22.1871C127.525 22.0524 127.554 21.9077 127.549 21.7624C127.556 21.6169 127.528 21.4718 127.467 21.3368C127.406 21.2019 127.314 21.0803 127.196 20.9802C127.086 20.8804 126.955 20.8017 126.81 20.7489C126.665 20.6961 126.509 20.6704 126.353 20.6732ZM131.387 22.1177H133.051V25.0119H136.572V26.257H133.057V33.4169C132.996 33.9359 133.155 34.4565 133.501 34.8745C133.948 35.1852 134.511 35.3288 135.072 35.2754H136.566V36.5537H134.807C133.876 36.6196 132.953 36.3585 132.231 35.8249C131.918 35.4971 131.682 35.1158 131.537 34.7038C131.392 34.2918 131.341 33.8576 131.387 33.4274V26.257H129.605V25.0119H131.387V22.1177ZM140.187 20.6732C140.031 20.6704 139.876 20.6961 139.731 20.7489C139.586 20.8017 139.454 20.8804 139.344 20.9802C139.227 21.0803 139.134 21.2019 139.074 21.3368C139.013 21.4718 138.985 21.6169 138.992 21.7624C138.987 21.9077 139.016 22.0524 139.076 22.1871C139.137 22.3218 139.228 22.4436 139.344 22.5447C139.513 22.696 139.728 22.7985 139.961 22.8391C140.195 22.8797 140.437 22.8565 140.656 22.7725C140.875 22.6885 141.061 22.5475 141.191 22.3675C141.32 22.1876 141.387 21.9769 141.383 21.7624C141.389 21.617 141.361 21.472 141.3 21.3371C141.24 21.2023 141.148 21.0806 141.031 20.9802C140.921 20.8804 140.789 20.8017 140.644 20.7489C140.499 20.6961 140.344 20.6704 140.187 20.6732ZM141.008 25.0119H139.367V36.5458H141.008V25.0119ZM147.093 26.6363C147.799 26.2835 148.596 26.1037 149.404 26.1149C150.367 26.0814 151.316 26.3268 152.113 26.815C152.838 27.2859 153.344 27.9828 153.531 28.7705H155.29C155.037 27.6312 154.333 26.6137 153.309 25.9069C152.264 25.2851 151.051 24.9281 149.8 24.8732C148.549 24.8182 147.304 25.0674 146.196 25.5947C145.255 26.0843 144.49 26.8072 143.992 27.6774C143.469 28.6559 143.198 29.728 143.198 30.8141C143.198 31.9001 143.469 32.9722 143.992 33.9508C144.492 34.8162 145.257 35.5344 146.196 36.0204C147.175 36.5164 148.284 36.768 149.407 36.7492C150.802 36.7965 152.173 36.4167 153.298 35.6717C154.319 34.9672 155.026 33.9557 155.29 32.8211H153.531C153.349 33.6154 152.843 34.3192 152.113 34.7943C151.319 35.2859 150.37 35.5341 149.407 35.5022C148.599 35.5134 147.802 35.3336 147.096 34.9807C146.39 34.6094 145.823 34.0576 145.467 33.3954C145.044 32.5912 144.839 31.7081 144.869 30.8186C144.833 29.9217 145.039 29.0304 145.47 28.221C145.825 27.5595 146.39 27.0085 147.093 26.6363ZM168.36 27.5444V25.0119L170 25.0204V36.5517H168.36V33.9827C167.937 34.7889 167.265 35.468 166.425 35.9383C165.482 36.4715 164.386 36.7435 163.273 36.7205C162.175 36.7354 161.094 36.4798 160.145 35.9813C159.213 35.4884 158.457 34.7658 157.964 33.8987C157.424 32.9306 157.155 31.8583 157.179 30.775C157.151 29.6913 157.421 28.6184 157.964 27.6513C158.453 26.7818 159.21 26.0585 160.145 25.5686C161.104 25.075 162.193 24.8233 163.297 24.8398C164.407 24.8134 165.501 25.0784 166.447 25.6025C167.286 26.0629 167.952 26.7393 168.36 27.5444ZM165.992 34.8549C166.73 34.4708 167.332 33.9057 167.727 33.2253V33.2272C168.144 32.4652 168.36 31.6272 168.36 30.7779C168.36 29.9286 168.144 29.0906 167.727 28.3286C167.332 27.6481 166.73 27.083 165.992 26.6989C165.263 26.3182 164.434 26.1212 163.592 26.1286C162.74 26.1154 161.899 26.3049 161.154 26.6781C160.429 27.0503 159.838 27.6035 159.453 28.2712C159.021 29.0399 158.808 29.8933 158.832 30.7548C158.811 31.615 159.024 32.4668 159.453 33.2357C159.833 33.9161 160.424 34.4823 161.154 34.8654C161.897 35.2441 162.738 35.4374 163.592 35.4253C164.434 35.4327 165.263 35.2357 165.992 34.8549Z"
    fill="#FFFBFD" />
</svg>

<svg xmlns="http://www.w3.org/2000/svg" width="170" height="57" fill="none" xmlns:v="https://vecta.io/nano"><path fill-rule="evenodd" d="M0 56.94V.06h63.08v16.987h-3.304L59.767 2.91H3.163v51.182h56.604V39.198h3.313V56.94H0zm22.391-26.775c.59.664.908 1.492.898 2.343a3.49 3.49 0 0 1-.651 2.098 4.23 4.23 0 0 1-1.881 1.424 7.55 7.55 0 0 1-2.908.521h-7.125V21.659h6.813c.99-.02 1.974.147 2.888.489a4.08 4.08 0 0 1 1.846 1.369c.42.591.638 1.28.627 1.981a3.16 3.16 0 0 1-.757 2.176c-.525.592-1.238 1.024-2.045 1.239.911.146 1.729.593 2.293 1.253zm-8.354-2.366h3.027a2.99 2.99 0 0 0 1.823-.479c.216-.17.386-.383.497-.621a1.54 1.54 0 0 0 .141-.755c.017-.259-.032-.518-.142-.758a1.73 1.73 0 0 0-.496-.626c-.523-.355-1.17-.529-1.823-.49h-3.027v3.73zm5.216 5.802c.228-.179.407-.403.524-.654a1.63 1.63 0 0 0 .151-.795 1.7 1.7 0 0 0-.163-.823c-.123-.26-.31-.491-.547-.676a3.07 3.07 0 0 0-1.917-.544h-3.264v4.009h3.336a3.06 3.06 0 0 0 1.88-.52v.004zm9.476 2.95V20.764h-3.313v15.787h3.313zm5.159-.572c-1.002-.498-1.827-1.242-2.38-2.145-.592-.979-.891-2.079-.868-3.194a5.8 5.8 0 0 1 .893-3.194c.568-.905 1.408-1.648 2.423-2.142 1.059-.498 2.236-.758 3.431-.758s2.372.26 3.431.758c1.015.494 1.855 1.237 2.423 2.142.607.976.914 2.08.89 3.199.025 1.119-.288 2.223-.907 3.194a6.06 6.06 0 0 1-2.459 2.145c-1.066.513-2.258.773-3.466.758-1.191.016-2.366-.247-3.411-.763zm5.098-2.238c.541-.275.981-.687 1.265-1.184a3.67 3.67 0 0 0 .474-1.918c.067-.95-.286-1.886-.982-2.603a3.26 3.26 0 0 0-1.094-.681 3.54 3.54 0 0 0-1.306-.226c-.445-.009-.887.068-1.297.224s-.779.389-1.082.682c-.617.75-.952 1.659-.956 2.593a4.1 4.1 0 0 0 .933 2.6 3.1 3.1 0 0 0 1.068.684c.406.156.845.232 1.286.222.592.003 1.175-.132 1.693-.391v-.002zm9.335-8.431c-.975.499-1.772 1.238-2.297 2.131l.002-.007a6.68 6.68 0 0 0 0 6.416c.525.893 1.322 1.634 2.296 2.134 1.026.516 2.185.777 3.359.758 1.444.048 2.863-.352 4.021-1.132 1.082-.765 1.842-1.841 2.155-3.048h-3.573a2.28 2.28 0 0 1-.99 1.234 2.71 2.71 0 0 1-1.635.385 2.99 2.99 0 0 1-1.248-.221c-.391-.161-.734-.403-1.002-.706-.605-.754-.897-1.675-.826-2.603-.067-.937.225-1.867.826-2.634a2.71 2.71 0 0 1 1.002-.706 2.99 2.99 0 0 1 1.248-.22c.592-.018 1.175.136 1.664.437.455.298.791.719.959 1.203h3.585c-.293-1.221-1.051-2.311-2.143-3.079-1.175-.761-2.597-1.148-4.043-1.098-1.174-.02-2.333.242-3.359.758zm19.21 11.242l-4.448-5.034v5.034H59.77V20.764h3.313v8.978l4.405-5.013h4.304l-5.776 5.932 5.822 5.893-4.306-.003zm7.974 0l5.976-14.577h1.852l5.975 14.577h-1.736l-1.447-3.506h-7.454l-1.43 3.506h-1.736zm6.9-12.718l-3.235 7.985 6.47.001-3.235-7.986zm15.331.966c-.905-.013-1.8.18-2.599.563-.755.363-1.368.926-1.756 1.614v-1.963h-1.632V36.55h1.64v-6.302c-.09-1.124.304-2.236 1.1-3.105.381-.355.842-.633 1.351-.815s1.056-.265 1.603-.242a4.11 4.11 0 0 1 1.542.223 3.79 3.79 0 0 1 1.305.771c.749.795 1.124 1.823 1.043 2.864v6.607h1.618v-6.765c.052-.674-.05-1.351-.299-1.989s-.639-1.223-1.148-1.72a5.27 5.27 0 0 0-1.74-.984c-.648-.22-1.337-.32-2.029-.294zm16.925.804c.838.461 1.503 1.137 1.91 1.942V25.02h1.64v11.531h-1.64v-2.569c-.423.806-1.095 1.485-1.935 1.956-.943.533-2.039.805-3.152.782a6.55 6.55 0 0 1-3.128-.739c-.932-.493-1.688-1.215-2.181-2.083a6.12 6.12 0 0 1-.785-3.124c-.027-1.084.242-2.157.785-3.124.489-.869 1.246-1.593 2.181-2.083.959-.494 2.048-.745 3.152-.729a6.23 6.23 0 0 1 3.153.763zm-.458 9.254c.738-.384 1.34-.949 1.735-1.63v.002c.417-.762.633-1.6.633-2.449s-.216-1.687-.633-2.449c-.395-.68-.997-1.246-1.735-1.63a5.1 5.1 0 0 0-2.4-.57c-.852-.013-1.693.176-2.438.55-.725.372-1.316.925-1.701 1.593-.432.769-.645 1.622-.621 2.484a4.84 4.84 0 0 0 .621 2.481c.38.68.971 1.247 1.701 1.63.743.379 1.584.572 2.438.56a5.1 5.1 0 0 0 2.4-.57zm6.417-13.944h1.64v15.631h-1.64V20.912zm6.553 4.099h-1.641v11.534h1.641V25.012zm-.82-4.339c-.156-.003-.312.023-.456.076s-.277.132-.387.231c-.117.1-.209.222-.27.357a.92.92 0 0 0-.082.425c-.006.215.06.427.189.607s.316.322.536.407a1.31 1.31 0 0 0 .696.066 1.24 1.24 0 0 0 .617-.298c.116-.101.208-.223.268-.358a.95.95 0 0 0 .085-.425c.007-.145-.021-.291-.082-.426a1.02 1.02 0 0 0-.271-.357 1.17 1.17 0 0 0-.386-.231c-.145-.053-.301-.078-.457-.076zm5.034 1.444h1.664v2.894h3.521v1.245h-3.515v7.16c-.061.519.098 1.04.444 1.458a2.37 2.37 0 0 0 1.571.401h1.494v1.278h-1.759c-.931.066-1.854-.195-2.576-.729a3.13 3.13 0 0 1-.694-1.121c-.145-.412-.196-.846-.15-1.276v-7.17h-1.782v-1.245h1.782v-2.894zm8.8-1.444a1.27 1.27 0 0 0-.456.076c-.145.053-.277.132-.387.231-.117.1-.21.222-.27.357s-.089.28-.082.426a.96.96 0 0 0 .084.425 1.05 1.05 0 0 0 .268.358c.169.151.384.254.617.294a1.32 1.32 0 0 0 .695-.067c.219-.084.405-.225.535-.405s.196-.391.192-.605c.006-.145-.022-.29-.083-.425s-.152-.256-.269-.357c-.11-.1-.242-.178-.387-.231a1.27 1.27 0 0 0-.457-.076zm.821 4.339h-1.641v11.534h1.641V25.012zm6.085 1.624c.706-.353 1.503-.533 2.311-.521.963-.034 1.912.212 2.709.7.725.471 1.231 1.168 1.418 1.955h1.759c-.253-1.139-.957-2.157-1.981-2.864-1.045-.622-2.258-.979-3.509-1.034a7.63 7.63 0 0 0-3.604.721c-.941.49-1.706 1.213-2.204 2.083-.523.979-.794 2.051-.794 3.137s.271 2.158.794 3.137c.5.865 1.265 1.584 2.204 2.07a6.87 6.87 0 0 0 3.211.729c1.395.047 2.766-.333 3.891-1.078 1.021-.705 1.728-1.716 1.992-2.851h-1.759c-.182.794-.688 1.498-1.418 1.973a4.85 4.85 0 0 1-2.706.708c-.808.011-1.605-.169-2.311-.522-.706-.371-1.273-.923-1.629-1.585a5.15 5.15 0 0 1-.598-2.577 5.08 5.08 0 0 1 .601-2.598c.355-.662.92-1.212 1.623-1.585zm21.267.908v-2.532l1.64.008v11.531h-1.64v-2.569c-.423.806-1.095 1.485-1.935 1.956-.943.533-2.039.805-3.152.782a6.55 6.55 0 0 1-3.128-.739c-.932-.493-1.688-1.215-2.181-2.083a6.12 6.12 0 0 1-.785-3.124c-.028-1.084.242-2.157.785-3.124.489-.869 1.246-1.593 2.181-2.083.959-.494 2.048-.745 3.152-.729a6.21 6.21 0 0 1 3.15.763c.839.46 1.505 1.137 1.913 1.942zm-2.368 7.311c.738-.384 1.34-.949 1.735-1.63v.002c.417-.762.633-1.6.633-2.449s-.216-1.687-.633-2.449c-.395-.681-.997-1.246-1.735-1.63a5.1 5.1 0 0 0-2.4-.57c-.852-.013-1.693.176-2.438.55-.725.372-1.316.925-1.701 1.593-.432.769-.645 1.622-.621 2.484a4.84 4.84 0 0 0 .621 2.481c.38.68.971 1.247 1.701 1.63.743.379 1.584.572 2.438.56a5.1 5.1 0 0 0 2.4-.57z" fill="#fffbfd"/></svg>
